X:1
T:Title
%%score { ( 1 3 ) | 2 }
L:1/8
M:6/8
K:C
V:1 treble nm="Grand Piano"
V:3 treble 
V:2 bass 
V:1
 z3 z2[Q:1/4=84] [EG] | [Ec]>[Ec][Ec] [Ec][GB][FA] | [EG]>[FA][EG] [CE]2 [EG] | %3
 A>AA [^FA][Fd][Fc] | [GB]3- [GB]2 [FG] | [Ec]>[Ec][Ec] [Ec][GB][FA] | [EG]>[FA][EG] [CE]2 [EG] | %7
 A>dc BAB |[M:5/8] [Ec]-[Ec]- [Ec]3 |[M:1/8] G |[M:3/4] A>A A[CAc] [CGB][CFA] | G6 | %12
 c>c c[Ge] [Gd][Gc] |[M:5/8] d-d- d3 |[M:1/8] G |[M:3/4] e>e e d2 d |[M:7/8] c>BA [Ac]3 A | %17
[M:3/4] G>c ed AB |[M:5/8] [Ec]-[Ec]- [Ec]3 |] %19
V:2
 z3 z2 [C,C] | [C,G,]>[C,G,][C,G,] [C,G,][C,A,][C,B,] | [C,C]>[C,C][C,C] [C,G,]2 [C,C] | %3
 [F,CF]>[F,CF][F,CF] [D,D][D,D][D,D] | [G,D]3- [G,D]2 [G,B,] | %5
 [C,G,]>[C,G,][C,G,] [C,G,][C,A,][C,B,] | [C,C]>[C,C][C,C] [C,G,]2 [C,C] | %7
 [F,CF]>[F,A,F][F,A,F] [G,F][G,F][G,F] |[M:5/8][K:bass] [C,G,]-[C,G,]- [C,G,]3 | %9
[M:1/8][K:treble] E |[M:3/4] F>F F[K:bass]F, F,F, | [C,C]>[C,C] [C,C] [C,C]2 E | %12
 E>E E[C,C] [D,B,][E,C] |[M:5/8][K:treble] [G,B,G]>[G,B,][G,B,] [G,B,]2 |[M:1/8] [G,CE] | %15
[M:3/4] [CG]>[CG] [CG] [G,B,F]2 [G,B,F] |[M:7/8][K:bass] [A,CE]>[A,CD][A,C] [F,C]3 [F,CF] | %17
[M:3/4][K:treble] [G,CE]>[G,CE] [G,CG][G,B,G] [G,DF][G,F] | %18
[M:5/8][K:bass] [C,G,]-[C,G,]- [C,G,]3 |] %19
V:3
 x6 | x6 | x6 | x6 | x6 | x6 | x6 | x6 |[M:5/8] x5 |[M:1/8] x |[M:3/4] x6 | E>E E E2 G | x6 | %13
[M:5/8] z z/ G/G G2 |[M:1/8] x |[M:3/4] x6 |[M:7/8] x7 |[M:3/4] x6 |[M:5/8] x5 |] %19

